lib/icons/interval.svg

<svg width="16" height="12" viewBox="0 0 16 12" fill="none" xmlns="http://www.w3.org/2000/svg">
<path fill-rule="evenodd" clip-rule="evenodd" d="M1 0C0.447715 0 0 0.447715 0 1V11C0 11.5523 0.447715 12 1 12H15C15.5523 12 16 11.5523 16 11V1C16 0.447715 15.5523 0 15 0H1ZM5 1H7.5V3.5C7.5 3.77614 7.72386 4 8 4C8.27614 4 8.5 3.77614 8.5 3.5V1H11V5.5C11 5.77614 11.2239 6 11.5 6C11.7761 6 12 5.77614 12 5.5V1H15V11H1V1H4V7.5C4 7.77614 4.22386 8 4.5 8C4.77614 8 5 7.77614 5 7.5V1Z" fill="#7A859E"/>
</svg>

<svg width="16" height="12" fill="none" xmlns="http://www.w3.org/2000/svg"><path fill-rule="evenodd" clip-rule="evenodd" d="M1 0a1 1 0 0 0-1 1v10a1 1 0 0 0 1 1h14a1 1 0 0 0 1-1V1a1 1 0 0 0-1-1H1Zm4 1h2.5v2.5a.5.5 0 0 0 1 0V1H11v4.5a.5.5 0 0 0 1 0V1h3v10H1V1h3v6.5a.5.5 0 0 0 1 0V1Z" fill="#7A859E"/></svg>
